X: 1154
T: Irak Sazsemâîsi
C: Şerif Muhittin Targan
O: Turkey
F: http://compmusic.upf.edu/node/140
N: irak--sazsemaisi--aksaksemai----serif_muhittin_targan
N: makam= irak
N: form= sazsemaisi
N: usul= aksaksemai = 10/8
M: 10/8
L: 1/16
K: C _2/4B ^3/4f  
Q: 1/4=168
%%MIDI tuningsystem comma53
A4 F2G2 A2B2 AGA2 B2c2  | B4 AGd3ccB BAA4D2  | 
w:  1. HANE  |   | 
F4 G2A2 B2c2 B2A4GF  | c4 BAA3GAG GFF4z2  | \
w:   |   | 
{e}d4 dcde dcde fgag =fed2  | 
w:  TESLİM  | 
cdcd cBde dcdc BAB4A2  | A2B2 cBAB AGA2 GFd4cB  | 
w:   |   | 
AcBd cBA3BcB AGF4z2  | {e}d4 dcde dcde fgag =fed2  | 
w:   |  TESLİM  | 
cdcd cBde dcdc BAB4A2  | A2B2 cBAB AGA2 GFd4cB  | 
w:   |   | 
AcBd cBA3BcB AGF4z2  | f4 d^efe fgfe ded4ef  | 
w:   |  2. HANE  | 
g4 fgf2 ^efe2 d^cd4ag  | g4 f^ed2 a2ag =f=edc dec2  | 
w:   |   | 
cdcd cB=fe dedc Bdc4(3BAB  | {e}d4 dcde dcde fgag =fed2  | 
w:   |  TESLİM  | 
cdcd cBde dcdc BAB4A2  | A2B2 cBAB AGA2 GFd4cB  | 
w:   |   | 
AcBd cBA3BcB AGF4z2  | {e}d4 dcde dcde fgag =fed2  | 
w:   |  TESLİM  | 
cdcd cBde dcdc BAB4A2  | A2B2 cBAB AGA2 GFd4cB  | 
w:   |   | 
AcBd cBA3BcB AGF4z2  | a4 gac'b agfe fga4gf  | 
w:   |  3. HANE  | 
g4 =fef2 ede2 dcd4cB  | g4 fefg fefe fgag fed2  | 
w:   |   | 
e=fef edeg fefe ded4z2  | {e}d4 dcde dcde fgag =fed2  | 
w:   |  TESLİM  | 
cdcd cBde dcdc BAB4A2  | A2B2 cBAB AGA2 GFd4cB  | 
w:   |   | 
AcBd cBA3BcB AGF4z2  | {e}d4 dcde dcde fgag =fed2  | 
w:   |  TESLİM  | 
cdcd cBde dcdc BAB4A2  | A2B2 cBAB AGA2 GFd4cB  | 
w:   |   | 
AcBd cBA3BcB AGF4z2  | z12  | f2f4agfed2  | 
w:   |  |  4. HANE  | 
g2g2g3/2f/feed^c2  | edd2d3/2^c/cBBAA2  | \
w:   |   | 
BAd2decBAGF2  | 
w:   | 
dccBBAcBBAA2  | cBBAAGAGGFF2  | 
w:   |   | 
f2f4agfed2  | g2g2g3/2f/feed^c2  | edd2d3/2^c/cBBAA2  | 
w:   |   |   | 
BAd2decBAGF2  | dccBBAcBBAA2  | 
w:   |   | 
cBBAAGAGGFF2  | F2G2A2G2A4  | A2B2^c2B2c4  | 
w:   |   |   | 
^c2d2e2d2g4  | =fed^c_7/8BAAGA4  | A_7/8B^cde=feddcde  | 
w:   |   |   | 
g=fed^cd_7/8BcABG2  | FGABcdBcA4  | AdcBABGAF4  | 
w:   |   |   | 
z20  | {e}d4 dcde dcde fgag =fed2  | \
w:  |  TESLİM  | 
cdcd cBde dcdc BAB4A2  | 
w:   | 
A2B2 cBAB AGA2 GFd4cB  | AcBd cBA3BcB AGF4z2  | 
w:   |   | 
{e}d4 dcde dcde fgag =fed2  | cdcd cBde dcdc BAB4A2  | 
w:  TESLİM  |   | 
A2B2 cBAB AGA2 GFd4cB  | AcBd cBA3BcB AGF4z2  | 
w:   |   | 
|


